packages/tokens/icons/userPermission/size32Px.svg

<svg viewBox="0 0 32 32" fill="none" xmlns="http://www.w3.org/2000/svg" width="1em" height="1em"><path d="M5.5 27.5V25.8333C5.5 22.6117 8.48731 20.5 11.5556 20.5L18.5 20.5" stroke="currentColor" stroke-linecap="round" stroke-linejoin="round"/><path d="M16 14.5C18.7614 14.5 21 12.2614 21 9.5C21 6.73858 18.7614 4.5 16 4.5C13.2386 4.5 11 6.73858 11 9.5C11 12.2614 13.2386 14.5 16 14.5Z" stroke="currentColor" stroke-linecap="round" stroke-linejoin="round"/><circle cx="24.5" cy="24.5" r="3" stroke="currentColor" stroke-linecap="round" stroke-linejoin="round"/><path d="M24.5 21.5L24.5 16.5M24.5 13.5V14.5M24.5 14.5H26.5M24.5 14.5L24.5 16.5M24.5 16.5H26.5" stroke="currentColor" stroke-linecap="round" stroke-linejoin="round"/></svg>

<svg xmlns="http://www.w3.org/2000/svg" fill="none" viewBox="0 0 32 32" width="1em" height="1em"><path stroke="currentColor" stroke-linecap="round" stroke-linejoin="round" d="M5.5 27.5v-1.667c0-3.221 2.987-5.333 6.056-5.333H18.5m-2.5-6a5 5 0 1 0 0-10 5 5 0 0 0 0 10Z"/><circle cx="24.5" cy="24.5" r="3" stroke="currentColor" stroke-linecap="round" stroke-linejoin="round"/><path stroke="currentColor" stroke-linecap="round" stroke-linejoin="round" d="M24.5 21.5v-5m0-3v1m0 0h2m-2 0v2m0 0h2"/></svg>
